X:1
T:Paddy McGinty
M:4/4
L:1/8
R:Barn Dance
B:Grace Orpen – Dances of Donegal (1931)
Z:AK/Fiddler’s Companion
K:G
g2f2 e>d B>d|e2E2E2 A>G|FA D2D2 B>A|G>F G>B d3f|
g2f2 e>d B>d|e2E2E2 A>G|F4-FDE>F|[B,4G4]-[B4G4]:|
|:B2 B>A G2 G>A|B>A B>c d3B|c2 c>B A2 A>B|c>B c>d e3c|
B2 B>A G2 G>A|B>A B>c d2 ^F2|g2 B2 A2 F2|[B,4G4]-[B4G4]:|]

